;FLAVOR:Marlin
;TIME:3224
;Filament used: 7.41517m
;Layer height: 0.5
;MINX:10.996
;MINY:23.807
;MINZ:0.3
;MAXX:139.004
;MAXY:126.193
;MAXZ:22.3
;ZOFFSETPROCESSED
;Generated with Cura_SteamEngine 4.13.1
M140 S60
M105
M190 S60
M104 S250
M105
M109 S250
M82 ;absolute extrusion mode
G21       ;metric values
G90       ;absolute positioning
M82       ;set extruder to absolute mode
M107      ;start with the fan off
G28 X0 Y0 ;home X/Y
G28 Z0    ;home Z
G92 E0    ;zero the extruded length
;G29       ;initiate auto bed leveling sequence
M420 S1; enable last saved mesh
G92 E0
G92 E0
G1 F1800 E-6.5
;LAYER_COUNT:44
;LAYER:0
M107
G1 F600 Z1.1 ;adjusted by z offset
G0 F3600 X29.957 Y27.793 Z1.1 ;adjusted by z offset
;TYPE:SKIRT
G1 F600 Z0.6 ;adjusted by z offset
G1 F1800 E0
G1 F900 X30.456 Y27.281 E0.07134
G1 X31.068 Y26.71 E0.15485
G1 X31.665 Y26.208 E0.23268
G1 X32.251 Y25.806 E0.30359
G1 X32.958 Y25.368 E0.38658
G1 X33.64 Y24.992 E0.46428
G1 X34.29 Y24.713 E0.53486
G1 X35.063 Y24.423 E0.61724
G1 X35.806 Y24.187 E0.69503
G1 X36.494 Y24.041 E0.76521
G1 X37.317 Y23.905 E0.84844
G1 X38.091 Y23.817 E0.92617
G1 X38.802 Y23.807 E0.99712
G1 X39.635 Y23.834 E1.08028
G1 X40.412 Y23.899 E1.15808
G1 X41.118 Y24.029 E1.22971
G1 X41.927 Y24.218 E1.3126
G1 X42.676 Y24.434 E1.39039
G1 X43.328 Y24.693 E1.46039
G1 X44.087 Y25.036 E1.5435
G1 X44.757 Y25.38 E1.61865
G1 X133.091 Y76.38 E11.7962
G1 X133.721 Y76.787 E11.87103
G1 X134.397 Y77.272 E11.95405
G1 X135.007 Y77.758 E12.03187
G1 X135.511 Y78.248 E12.10201
G1 X136.084 Y78.859 E12.18559
G1 X136.587 Y79.454 E12.26333
G1 X136.993 Y80.043 E12.33471
G1 X137.431 Y80.747 E12.41744
G1 X137.808 Y81.429 E12.4952
G1 X138.094 Y82.093 E12.56734
G1 X138.388 Y82.877 E12.65089
G1 X138.624 Y83.62 E12.72867
G1 X138.772 Y84.317 E12.79977
G1 X138.908 Y85.147 E12.88369
G1 X138.994 Y85.922 E12.9615
G1 X139.004 Y86.625 E13.03165
G1 X138.977 Y87.449 E13.11391
G1 X138.911 Y88.226 E13.19172
G1 X138.781 Y88.934 E13.26355
G1 X138.59 Y89.749 E13.34707
G1 X138.373 Y90.498 E13.42488
G1 X138.113 Y91.15 E13.49492
G1 X137.772 Y91.903 E13.5774
G1 X137.431 Y92.568 E13.65197
G1 X121.427 Y120.286 E16.84559
G1 X121.016 Y120.922 E16.92115
G1 X120.53 Y121.598 E17.00422
G1 X120.043 Y122.207 E17.08203
G1 X119.544 Y122.719 E17.15336
G1 X118.932 Y123.29 E17.23688
G1 X118.335 Y123.792 E17.31471
G1 X117.749 Y124.194 E17.38562
G1 X117.042 Y124.632 E17.4686
G1 X116.36 Y125.008 E17.54631
G1 X115.71 Y125.287 E17.61689
G1 X114.937 Y125.577 E17.69927
G1 X114.194 Y125.813 E17.77706
G1 X113.506 Y125.959 E17.84723
G1 X112.683 Y126.095 E17.93047
G1 X111.909 Y126.183 E18.00819
G1 X111.198 Y126.193 E18.07915
G1 X110.365 Y126.166 E18.16231
G1 X109.588 Y126.101 E18.24011
G1 X108.882 Y125.971 E18.31174
G1 X108.073 Y125.782 E18.39463
G1 X107.324 Y125.566 E18.47241
G1 X106.672 Y125.306 E18.54245
G1 X105.911 Y124.962 E18.62578
G1 X105.241 Y124.619 E18.70089
G1 X16.909 Y73.62 E28.87821
G1 X16.279 Y73.213 E28.95305
G1 X15.603 Y72.728 E29.03607
G1 X14.993 Y72.242 E29.11389
G1 X14.489 Y71.752 E29.18403
G1 X13.916 Y71.141 E29.26761
G1 X13.413 Y70.546 E29.34535
G1 X13.005 Y69.954 E29.41709
G1 X12.565 Y69.246 E29.50027
G1 X12.188 Y68.563 E29.57811
G1 X11.902 Y67.899 E29.65025
G1 X11.61 Y67.119 E29.73335
G1 X11.375 Y66.375 E29.8112
G1 X11.228 Y65.683 E29.88179
G1 X11.092 Y64.853 E29.96571
G1 X11.006 Y64.078 E30.04352
G1 X10.996 Y63.375 E30.11367
G1 X11.023 Y62.551 E30.19593
G1 X11.089 Y61.774 E30.27374
G1 X11.219 Y61.066 E30.34557
G1 X11.41 Y60.251 E30.42909
G1 X11.627 Y59.502 E30.5069
G1 X11.887 Y58.85 E30.57694
G1 X12.228 Y58.097 E30.65942
G1 X12.569 Y57.432 E30.73399
G1 X28.573 Y29.714 E33.92761
G1 X28.984 Y29.078 E34.00317
G1 X29.47 Y28.402 E34.08624
G1 X29.957 Y27.793 E34.16405
G0 F3600 X30.582 Y28.294
G1 F900 X31.002 Y27.866 E34.22388
G1 X31.614 Y27.295 E34.3074
G1 X32.18 Y26.822 E34.381
G1 X32.672 Y26.486 E34.44045
G1 X33.379 Y26.048 E34.52343
G1 X34.026 Y25.695 E34.59697
G1 X34.571 Y25.462 E34.65612
G1 X35.344 Y25.172 E34.7385
G1 X36.048 Y24.951 E34.81212
G1 X36.624 Y24.83 E34.87085
G1 X37.447 Y24.694 E34.95408
G1 X38.18 Y24.613 E35.02767
G1 X38.776 Y24.607 E35.08714
G1 X39.609 Y24.634 E35.1703
G1 X40.344 Y24.697 E35.24391
G1 X40.936 Y24.808 E35.30401
G1 X41.745 Y24.997 E35.3869
G1 X42.453 Y25.204 E35.4605
G1 X42.998 Y25.422 E35.51907
G1 X43.757 Y25.765 E35.60218
G1 X44.357 Y26.073 E35.66948
G1 X132.691 Y77.073 E45.84703
G1 X133.255 Y77.437 E45.91401
G1 X133.931 Y77.922 E45.99702
G1 X134.506 Y78.384 E46.07062
G1 X134.927 Y78.795 E46.12933
G1 X135.5 Y79.406 E46.21291
G1 X135.975 Y79.971 E46.28656
G1 X136.314 Y80.466 E46.34642
G1 X136.752 Y81.17 E46.42915
G1 X137.107 Y81.816 E46.5027
G1 X137.345 Y82.374 E46.56323
G1 X137.639 Y83.158 E46.64678
G1 X137.86 Y83.862 E46.72041
G1 X137.983 Y84.446 E46.77996
G1 X138.119 Y85.276 E46.86388
G1 X138.198 Y86.009 E46.93744
G1 X138.204 Y86.599 E46.99631
G1 X138.177 Y87.423 E47.07858
G1 X138.113 Y88.157 E47.15209
G1 X138.002 Y88.752 E47.21249
G1 X137.811 Y89.567 E47.29601
G1 X137.604 Y90.274 E47.36952
G1 X137.384 Y90.82 E47.42826
G1 X137.043 Y91.573 E47.51074
G1 X136.738 Y92.168 E47.57745
G1 X120.734 Y119.886 E50.77107
G1 X120.366 Y120.455 E50.83869
G1 X119.88 Y121.131 E50.92176
G1 X119.418 Y121.706 E50.99536
G1 X118.998 Y122.134 E51.05519
G1 X118.386 Y122.705 E51.13871
G1 X117.82 Y123.178 E51.21231
G1 X117.328 Y123.514 E51.27176
G1 X116.621 Y123.952 E51.35474
G1 X115.974 Y124.305 E51.42828
G1 X115.429 Y124.538 E51.48743
G1 X114.656 Y124.828 E51.56981
G1 X113.952 Y125.049 E51.64343
G1 X113.376 Y125.17 E51.70216
G1 X112.553 Y125.306 E51.78539
G1 X111.82 Y125.387 E51.85898
G1 X111.224 Y125.393 E51.91845
G1 X110.391 Y125.366 E52.00161
G1 X109.656 Y125.303 E52.07522
G1 X109.064 Y125.192 E52.13532
G1 X108.255 Y125.003 E52.21821
G1 X107.547 Y124.796 E52.29181
G1 X107.001 Y124.577 E52.35051
G1 X106.24 Y124.233 E52.43384
G1 X105.641 Y123.926 E52.501
G1 X17.309 Y72.927 E62.67833
G1 X16.745 Y72.563 E62.74531
G1 X16.069 Y72.078 E62.82833
G1 X15.494 Y71.616 E62.90193
G1 X15.073 Y71.205 E62.96063
G1 X14.5 Y70.594 E63.04421
G1 X14.025 Y70.029 E63.11786
G1 X13.684 Y69.531 E63.17809
G1 X13.244 Y68.823 E63.26126
G1 X12.89 Y68.177 E63.33477
G1 X12.652 Y67.618 E63.39539
G1 X12.36 Y66.838 E63.47849
G1 X12.139 Y66.135 E63.55202
G1 X12.017 Y65.554 E63.61126
G1 X11.881 Y64.724 E63.69518
G1 X11.802 Y63.991 E63.76874
G1 X11.796 Y63.401 E63.82762
G1 X11.823 Y62.577 E63.90988
G1 X11.887 Y61.843 E63.9834
G1 X11.998 Y61.248 E64.04379
G1 X12.189 Y60.433 E64.12731
G1 X12.396 Y59.726 E64.20082
G1 X12.616 Y59.18 E64.25956
G1 X12.957 Y58.427 E64.34204
G1 X13.262 Y57.832 E64.40875
G1 X29.266 Y30.114 E67.60237
G1 X29.634 Y29.545 E67.66999
G1 X30.12 Y28.869 E67.75306
G1 X30.582 Y28.294 E67.82666
G0 F3600 X31.205 Y28.798
G1 F900 X31.548 Y28.451 E67.87534
G1 X32.16 Y27.88 E67.95886
G1 X32.693 Y27.438 E68.02795
G1 X33.093 Y27.166 E68.07622
G1 X33.8 Y26.728 E68.1592
G1 X34.409 Y26.398 E68.22832
G1 X34.852 Y26.211 E68.2763
G1 X35.625 Y25.921 E68.35868
G1 X36.287 Y25.716 E68.42782
G1 X36.755 Y25.619 E68.47551
G1 X37.578 Y25.483 E68.55875
G1 X38.266 Y25.41 E68.62778
G1 X38.75 Y25.406 E68.67608
G1 X39.583 Y25.433 E68.75924
G1 X40.273 Y25.495 E68.82836
G1 X40.754 Y25.587 E68.87723
G1 X41.563 Y25.776 E68.96012
G1 X42.227 Y25.973 E69.02923
G1 X42.669 Y26.151 E69.07678
G1 X43.428 Y26.494 E69.15989
G1 X43.957 Y26.766 E69.21924
G1 X132.291 Y77.766 E79.39679
G1 X132.789 Y78.087 E79.45591
G1 X133.465 Y78.572 E79.53892
G1 X134.003 Y79.007 E79.60796
G1 X134.344 Y79.343 E79.65572
G1 X134.917 Y79.954 E79.7393
G1 X135.36 Y80.485 E79.80831
G1 X135.634 Y80.888 E79.85693
G1 X136.072 Y81.592 E79.93966
G1 X136.404 Y82.201 E80.00887
G1 X136.596 Y82.655 E80.05806
G1 X136.89 Y83.439 E80.1416
G1 X137.095 Y84.101 E80.21075
G1 X137.193 Y84.576 E80.25915
G1 X137.329 Y85.406 E80.34307
G1 X137.401 Y86.095 E80.41219
G1 X137.405 Y86.572 E80.45979
G1 X137.378 Y87.396 E80.54205
G1 X137.315 Y88.086 E80.61119
G1 X137.223 Y88.569 E80.66025
G1 X137.032 Y89.384 E80.74377
G1 X136.835 Y90.048 E80.81288
G1 X136.656 Y90.49 E80.86046
G1 X136.315 Y91.243 E80.94294
G1 X136.045 Y91.768 E81.00185
G1 X120.041 Y119.486 E84.19547
G1 X119.717 Y119.988 E84.25509
G1 X119.231 Y120.664 E84.33816
G1 X118.795 Y121.202 E84.40726
G1 X118.452 Y121.549 E84.45594
G1 X117.84 Y122.12 E84.53946
G1 X117.307 Y122.562 E84.60855
G1 X116.907 Y122.834 E84.65681
G1 X116.2 Y123.272 E84.7398
G1 X115.591 Y123.602 E84.80891
G1 X115.148 Y123.789 E84.85689
G1 X114.375 Y124.079 E84.93927
G1 X113.713 Y124.284 E85.00842
G1 X113.245 Y124.381 E85.05611
G1 X112.422 Y124.517 E85.13935
G1 X111.734 Y124.59 E85.20838
G1 X111.25 Y124.594 E85.25667
G1 X110.417 Y124.567 E85.33984
G1 X109.727 Y124.505 E85.40896
G1 X109.246 Y124.413 E85.45783
G1 X108.437 Y124.224 E85.54072
G1 X107.773 Y124.027 E85.60983
G1 X107.331 Y123.848 E85.65741
G1 X106.57 Y123.504 E85.74074
G1 X106.041 Y123.233 E85.80005
G1 X17.709 Y72.234 E95.97738
G1 X17.211 Y71.913 E96.0365
G1 X16.535 Y71.428 E96.11951
G1 X15.997 Y70.993 E96.18855
G1 X15.656 Y70.657 E96.23631
G1 X15.083 Y70.046 E96.31989
G1 X14.64 Y69.515 E96.3889
G1 X14.364 Y69.109 E96.43788
G1 X13.924 Y68.401 E96.52106
G1 X13.593 Y67.793 E96.59013
G1 X13.401 Y67.338 E96.63941
G1 X13.109 Y66.558 E96.72251
G1 X12.904 Y65.896 E96.79166
G1 X12.807 Y65.424 E96.83974
G1 X12.671 Y64.594 E96.92366
G1 X12.599 Y63.905 E96.99279
G1 X12.595 Y63.428 E97.04038
G1 X12.622 Y62.604 E97.12265
G1 X12.685 Y61.914 E97.19178
G1 X12.777 Y61.431 E97.24084
G1 X12.968 Y60.616 E97.32436
G1 X13.165 Y59.952 E97.39347
G1 X13.344 Y59.51 E97.44106
G1 X13.685 Y58.757 E97.52354
G1 X13.955 Y58.232 E97.58244
G1 X29.959 Y30.514 E100.77606
G1 X30.283 Y30.012 E100.83568
G1 X30.769 Y29.336 E100.91875
G1 X31.205 Y28.798 E100.98785
G0 F3600 X31.827 Y29.303
G1 F900 X32.094 Y29.036 E101.02553
G1 X32.706 Y28.465 E101.10904
G1 X33.203 Y28.055 E101.17333
G1 X33.514 Y27.847 E101.21066
G1 X34.221 Y27.409 E101.29365
G1 X34.789 Y27.104 E101.35798
G1 X35.133 Y26.96 E101.39519
G1 X35.906 Y26.67 E101.47757
G1 X36.523 Y26.482 E101.54193
G1 X36.885 Y26.409 E101.57878
G1 X37.708 Y26.273 E101.66201
G1 X38.35 Y26.207 E101.7264
G1 X38.724 Y26.206 E101.76372
G1 X39.557 Y26.233 E101.84688
G1 X40.199 Y26.294 E101.91123
G1 X40.572 Y26.366 E101.94914
G1 X41.381 Y26.555 E102.03203
G1 X41.998 Y26.741 E102.09633
G1 X42.339 Y26.88 E102.13308
G1 X43.098 Y27.223 E102.21618
G1 X43.557 Y27.459 E102.26768
G1 X131.891 Y78.459 E112.44523
G1 X132.322 Y78.737 E112.49641
G1 X132.998 Y79.222 E112.57942
G1 X133.498 Y79.629 E112.64375
G1 X133.76 Y79.89 E112.68065
G1 X134.333 Y80.501 E112.76423
G1 X134.744 Y80.998 E112.82859
G1 X134.955 Y81.311 E112.86625
G1 X135.393 Y82.015 E112.94898
G1 X135.699 Y82.582 E113.01327
G1 X135.847 Y82.936 E113.05156
G1 X136.141 Y83.72 E113.1351
G1 X136.329 Y84.337 E113.19946
G1 X136.404 Y84.705 E113.23694
G1 X136.54 Y85.535 E113.32086
G1 X136.604 Y86.177 E113.38523
G1 X136.605 Y86.546 E113.42205
G1 X136.578 Y87.37 E113.50432
G1 X136.517 Y88.012 E113.56866
G1 X136.444 Y88.387 E113.60678
G1 X136.253 Y89.202 E113.69031
G1 X136.067 Y89.819 E113.75461
G1 X135.927 Y90.16 E113.79139
G1 X135.586 Y90.913 E113.87387
G1 X135.352 Y91.368 E113.92492
G1 X119.348 Y119.086 E117.11854
G1 X119.067 Y119.521 E117.17022
G1 X118.581 Y120.197 E117.25329
G1 X118.173 Y120.697 E117.31768
G1 X117.906 Y120.964 E117.35536
G1 X117.294 Y121.535 E117.43888
G1 X116.797 Y121.945 E117.50316
G1 X116.486 Y122.153 E117.5405
G1 X115.779 Y122.591 E117.62348
G1 X115.211 Y122.896 E117.68781
G1 X114.867 Y123.04 E117.72502
G1 X114.094 Y123.33 E117.8074
G1 X113.477 Y123.518 E117.87176
G1 X113.115 Y123.591 E117.90861
G1 X112.292 Y123.727 E117.99184
G1 X111.65 Y123.793 E118.05624
G1 X111.276 Y123.794 E118.09356
G1 X110.443 Y123.767 E118.17672
G1 X109.801 Y123.706 E118.24106
G1 X109.428 Y123.634 E118.27897
G1 X108.619 Y123.445 E118.36186
G1 X108.002 Y123.259 E118.42617
G1 X107.66 Y123.119 E118.46304
G1 X106.899 Y122.775 E118.54637
G1 X106.441 Y122.54 E118.59773
G1 X18.109 Y71.541 E128.77506
G1 X17.678 Y71.263 E128.82624
G1 X17.002 Y70.778 E128.90925
G1 X16.502 Y70.371 E128.97358
G1 X16.24 Y70.11 E129.01048
G1 X15.667 Y69.499 E129.09406
G1 X15.256 Y69.002 E129.15841
G1 X15.043 Y68.687 E129.19636
G1 X14.603 Y67.979 E129.27953
G1 X14.298 Y67.411 E129.34386
G1 X14.15 Y67.057 E129.38215
G1 X13.858 Y66.277 E129.46525
G1 X13.67 Y65.661 E129.52951
G1 X13.596 Y65.295 E129.56677
G1 X13.46 Y64.465 E129.65069
G1 X13.396 Y63.823 E129.71507
G1 X13.395 Y63.454 E129.75189
G1 X13.422 Y62.63 E129.83415
G1 X13.483 Y61.988 E129.8985
G1 X13.556 Y61.613 E129.93662
G1 X13.747 Y60.798 E130.02014
G1 X13.933 Y60.181 E130.08445
G1 X14.073 Y59.84 E130.12123
G1 X14.414 Y59.087 E130.20371
G1 X14.648 Y58.632 E130.25476
G1 X30.652 Y30.914 E133.44838
G1 X30.933 Y30.479 E133.50005
G1 X31.419 Y29.803 E133.58313
G1 X31.827 Y29.303 E133.64752
G0 F3600 X32.639 Y29.621
G1 F900 X33.251 Y29.05 E133.73104
G1 X33.936 Y28.527 E133.81703
G1 X34.643 Y28.089 E133.90002
G1 X35.414 Y27.709 E133.98578
G1 X36.187 Y27.419 E134.06816
G1 X37.016 Y27.198 E134.15377
G1 X37.839 Y27.062 E134.237
G1 X38.699 Y27.005 E134.323
G1 X39.532 Y27.032 E134.40616
G1 X40.39 Y27.145 E134.49251
G1 X41.199 Y27.334 E134.57541
G1 X42.01 Y27.609 E134.66086
G1 X42.769 Y27.952 E134.74396
G1 X43.157 Y28.151 E134.78747
G1 X131.491 Y79.151 E144.96502
G1 X131.856 Y79.387 E145.00839
G1 X132.532 Y79.872 E145.09141
G1 X133.176 Y80.437 E145.17689
G1 X133.749 Y81.048 E145.26047
G1 X134.276 Y81.734 E145.34679
G1 X134.714 Y82.438 E145.42952
G1 X135.098 Y83.217 E145.51618
G1 X135.392 Y84.001 E145.59973
G1 X135.614 Y84.835 E145.68584
G1 X135.75 Y85.665 E145.76976
G1 X135.806 Y86.52 E145.85526
G1 X135.779 Y87.344 E145.93752
G1 X135.665 Y88.204 E146.02408
G1 X135.474 Y89.019 E146.10761
G1 X135.198 Y89.83 E146.19309
G1 X134.857 Y90.583 E146.27557
G1 X134.659 Y90.968 E146.31877
G1 X118.655 Y118.686 E149.51239
G1 X118.418 Y119.054 E149.55606
G1 X117.932 Y119.73 E149.63914
G1 X117.361 Y120.379 E149.72539
G1 X116.749 Y120.95 E149.80891
G1 X116.064 Y121.473 E149.8949
G1 X115.357 Y121.911 E149.97789
G1 X114.586 Y122.291 E150.06365
G1 X113.813 Y122.581 E150.14603
G1 X112.984 Y122.802 E150.23164
G1 X112.161 Y122.938 E150.31487
G1 X111.301 Y122.995 E150.40087
G1 X110.468 Y122.968 E150.48403
G1 X109.61 Y122.855 E150.57038
G1 X108.801 Y122.666 E150.65328
G1 X107.99 Y122.39 E150.73876
G1 X107.229 Y122.046 E150.82209
G1 X106.841 Y121.848 E150.86555
G1 X18.509 Y70.849 E161.04288
G1 X18.144 Y70.613 E161.08625
G1 X17.468 Y70.128 E161.16927
G1 X16.824 Y69.563 E161.25475
G1 X16.251 Y68.952 E161.33833
G1 X15.723 Y68.264 E161.42487
G1 X15.283 Y67.556 E161.50804
G1 X14.899 Y66.777 E161.5947
G1 X14.607 Y65.997 E161.6778
G1 X14.386 Y65.165 E161.7637
G1 X14.25 Y64.335 E161.84762
G1 X14.194 Y63.48 E161.93312
G1 X14.221 Y62.656 E162.01538
G1 X14.335 Y61.796 E162.10194
G1 X14.526 Y60.981 E162.18547
G1 X14.802 Y60.17 E162.27095
G1 X15.143 Y59.417 E162.35343
G1 X15.341 Y59.032 E162.39662
G1 X31.345 Y31.314 E165.59025
G1 X31.582 Y30.946 E165.63392
G1 X32.068 Y30.27 E165.71699
G1 X32.639 Y29.621 E165.80325
G0 F3600 X33.185 Y30.206
G1 F900 X33.797 Y29.635 E165.88676
G1 X34.357 Y29.207 E165.95709
G1 X35.064 Y28.769 E166.04008
G1 X35.695 Y28.458 E166.11027
G1 X36.468 Y28.168 E166.19265
G1 X37.146 Y27.987 E166.26267
G1 X37.969 Y27.851 E166.3459
G1 X38.673 Y27.805 E166.4163
G1 X39.506 Y27.832 E166.49946
G1 X40.208 Y27.924 E166.57011
G1 X41.017 Y28.113 E166.653
G1 X41.681 Y28.338 E166.72296
G1 X42.44 Y28.681 E166.80606
G1 X42.757 Y28.844 E166.84163
G1 X131.091 Y79.844 E177.01918
G1 X131.39 Y80.037 E177.05469
G1 X132.066 Y80.522 E177.13771
G1 X132.593 Y80.984 E177.20764
G1 X133.166 Y81.595 E177.29122
G1 X133.597 Y82.156 E177.36181
G1 X134.035 Y82.86 E177.44454
G1 X134.349 Y83.498 E177.51549
G1 X134.643 Y84.282 E177.59904
G1 X134.825 Y84.964 E177.66947
G1 X134.961 Y85.794 E177.75339
G1 X135.006 Y86.494 E177.82338
G1 X134.979 Y87.318 E177.90564
G1 X134.886 Y88.021 E177.9764
G1 X134.695 Y88.836 E178.05993
G1 X134.469 Y89.5 E178.12991
G1 X134.128 Y90.253 E178.21239
G1 X133.967 Y90.568 E178.24769
G1 X117.963 Y118.286 E181.44131
